src/static/img/catalogue-bg-03.svg

<svg width="288" height="160" viewBox="0 0 288 160" fill="none" xmlns="http://www.w3.org/2000/svg">
<g clip-path="url(#clip0_654_4821)">
<path d="M-58 16C-58 7.16345 -50.8366 0 -42 0H342C350.837 0 358 7.16344 358 16V206H-58V16Z" fill="#F2E7AA"/>
<path opacity="0.7" d="M204 161C204 148.438 211.035 134.756 220.387 125.873C229.739 116.99 242.423 112 255.648 112C268.874 112 281.558 116.99 290.91 125.873C300.262 134.756 307 148.438 307 161L255.648 161L204 161Z" fill="#9E4F39"/>
<path opacity="0.7" d="M161 85C161 104.485 150.14 125.704 135.704 139.482C121.267 153.26 101.687 161 81.2709 161C60.8546 161 41.2745 153.26 26.8379 139.482C12.4014 125.704 2 104.485 2 85L81.2709 85L161 85Z" fill="#EECFD9"/>
<path opacity="0.7" d="M133 85C133 38.8523 156.768 -11.4052 188.365 -44.0365C219.962 -76.6679 262.817 -95 307.501 -95C352.186 -95 395.041 -76.6679 426.638 -44.0365C458.235 -11.4052 481 38.8523 481 85L307.501 85L133 85Z" fill="#FAF8ED"/>
<ellipse opacity="0.7" cx="25.5" cy="62" rx="23.5" ry="23" fill="#3E81C5"/>
</g>
<defs>
<clipPath id="clip0_654_4821">
<path d="M0 16C0 7.16345 7.16344 0 16 0H272C280.837 0 288 7.16344 288 16V160H0V16Z" fill="white"/>
</clipPath>
</defs>
</svg>

<svg fill="none" xmlns="http://www.w3.org/2000/svg" viewBox="0 0 288 160">
    <g clip-path="url(#a)">
        <path d="M-58 16c0-8.837 7.163-16 16-16h384c8.837 0 16 7.163 16 16v190H-58V16Z" fill="#F2E7AA" />
        <path opacity=".7" d="M204 161c0-12.562 7.035-26.244 16.387-35.127C229.739 116.99 242.423 112 255.648 112c13.226 0 25.91 4.99 35.262 13.873S307 148.438 307 161H204Z" fill="#9E4F39" />
        <path opacity=".7" d="M161 85c0 19.485-10.86 40.704-25.296 54.482C121.267 153.26 101.687 161 81.271 161c-20.416 0-39.996-7.74-54.433-21.518C12.4 125.704 2 104.485 2 85h159Z" fill="#EECFD9" />
        <path opacity=".7" d="M133 85c0-46.148 23.768-96.405 55.365-129.036C219.962-76.668 262.817-95 307.501-95c44.685 0 87.54 18.332 119.137 50.964C458.235-11.406 481 38.852 481 85H133Z" fill="#FAF8ED" />
        <ellipse opacity=".7" cx="25.5" cy="62" rx="23.5" ry="23" fill="#3E81C5" />
    </g>
    <defs>
        <clipPath id="a">
            <path d="M0 16C0 7.163 7.163 0 16 0h256c8.837 0 16 7.163 16 16v144H0V16Z" fill="#fff" />
        </clipPath>
    </defs>
</svg>
